X:1
T:Nun Komm, der heiden Heiland
T:Nun Komm, der heiden Heiland
T:Public  domain
Z:Public  domain
%%score ( 1 2 ) ( 3 4 )
L:1/8
Q:1/4=112
M:4/4
K:Bb
V:1 treble nm="Unnamed-000"
V:2 treble 
V:3 bass nm="Nun Komm"
V:4 bass 
V:1
 ([DG]2 [CG]2 [DF]2 [DB]2 | [DA] [=EG] [^FA]2 [DG]4 | [DG] [^FA] [GB]2 [Cc]2 [=FB]2 | %3
 [Ec]2 d2 [EB]4) | ([EB]2 [Ec]2 d c [DB]2 | [Cc] [GB] [^FA]2 [DG]4 | G2 [=EG]2 [DF]2 [DB]2 | %7
 [EA] [B,G] [CA]2 [=B,G]4) |] %8
V:2
 x8 | x8 | x8 | x2 DE/F/ x4 | x4 D2 x2 | x8 | ^C D x6 | x8 |] %8
V:3
 B,2 A, G, A, G, [D,F,] [=E,G,] | [^F,A,] [G,B,] [D,C]2 [G,,B,]4 | B, C D E [F,A,] [E,G,] F, G, | %3
 [C,A,]2 B, F, [E,G,]4 | G,2 A, B, [^F,A,]2 [=F,G,] x | G,2 D C [G,,B,]4 | =E,2 A,2 A,2 G,2 | %7
 G,3 ^F, [G,,D,]4 |] %8
V:4
 G, F, E,2 D,2 x2 | x8 | G,,2 G,2 x2 D,2 | x2 B,,2 x4 | E, D, C,2 x2 G,- x | E, C, D,2 x4 | %6
 A,, =B,, ^C, A,, D, =C, _B,, G,, | C,D,/E,/ D,-D, x4 |] %8

